!!!OTL: Auf der letzten Reise litt ich etwas Not fehlt es mir an Speise, kauft ich mir das Brot
!!!ARE: Europa, Mitteleuropa, Deutschland, Wolga - Kolonie
!!!SCT: D0146
!!!YEM: Copyright 1995, estate of Helmut Schaffrath.
**kern
*ICvox
*Ivox
*M4/4
*k[f#c#g#]
*A:
=1
{8.e
16a
8a
8a
4cc#
4a
=2
8dd
8cc#
8b
8a
2b}
=3
{8e
8f#
8g#
8a
8b
8cc#
4dd
=4
8.ee
16dd
8cc#
8b
2a}
=5
{8ee
8ee
8ff#
8ee
4aa
8ee
8cc#
=6
8ff#
8ee
8dd
8cc#
8cc#
8dd
4b}
=7
{8.e
16a
8a
8a
8cc#
8cc#
8a
8cc#
=8
8ee
8ee
8.ee
16ff#
4.ee}
{8cc#
=9
8ee
8ee
8ff#
8gg#
8aa
8ff#
8ee
8dd
=10
8cc#
8dd
4b
2a}
==
!!!AGN: Wander - Lied, Handwerksburschen - Lied
!! Inzipit = Transposition zum Lied
!!!ONB: ESAC (Essen Associative Code) Database: DVA
!!!AMT: simple quadruple
!!!AIN: vox
!!!EED: Helmut Schaffrath
!!!EEV: 1.0
*-
